icon/gr/form-edit.svg

<svg xmlns="http://www.w3.org/2000/svg" viewBox="0 0 24 24" height="1em" width="1em">
  <path fill="none" stroke="#000" stroke-width="2" d="M11.9955241,8.33576576 L15.4932862,11.8335278 L11.9955241,8.33576576 Z M17.5365751,7.79609426 C17.9262629,8.18578207 17.9321949,8.81165877 17.5321697,9.21168397 L10.0807224,16.6631313 L6,17.829052 L7.16592069,13.7483296 L14.617368,6.29688224 C15.0094888,5.90476144 15.6393004,5.89881957 16.0329577,6.29247691 L17.5365751,7.79609426 Z"/>
</svg>

<svg xmlns="http://www.w3.org/2000/svg" width="24" height="24"><path fill="none" stroke="#000" stroke-width="2" d="m11.996 8.336 3.497 3.498-3.497-3.498Zm5.54-.54a.994.994 0 0 1-.004 1.416l-7.451 7.451L6 17.83l1.166-4.08 7.451-7.452a.997.997 0 0 1 1.416-.005l1.504 1.504Z"/></svg>
